assets/svg/toolbar-bold.svg

<svg width="50" height="50" xmlns="http://www.w3.org/2000/svg"><defs><path d="M15.896 42.362h8.189a33.7 33.7 0 003.637-.212c1.294-.142 2.482-.471 3.566-.989a7.027 7.027 0 002.682-2.224c.706-.964 1.059-2.27 1.059-3.919 0-2.635-.859-4.47-2.577-5.506-1.719-1.035-4.389-1.553-8.013-1.553h-8.543v14.403zm0-22.029h8.119c2.965 0 5.19-.575 6.673-1.729 1.482-1.153 2.223-2.671 2.223-4.554 0-2.164-.765-3.777-2.295-4.836-1.529-1.059-3.989-1.588-7.378-1.588h-7.342v12.707zM7 0h19.486c1.883 0 3.743.224 5.577.671 1.836.448 3.471 1.177 4.908 2.189 1.435 1.013 2.6 2.319 3.495 3.919.893 1.6 1.341 3.529 1.341 5.788 0 2.825-.801 5.154-2.401 6.99-1.6 1.835-3.695 3.154-6.283 3.954v.141c1.553.189 3.001.625 4.342 1.306 1.342.683 2.482 1.553 3.425 2.612a12.116 12.116 0 012.223 3.671c.541 1.39.812 2.884.812 4.484 0 2.73-.542 5.002-1.624 6.813a12.88 12.88 0 01-4.271 4.377c-1.766 1.107-3.79 1.895-6.072 2.366-2.284.47-4.602.706-6.954.706H7V0z" id="path-1"/></defs></svg>

<svg width="50px" height="50px" viewBox="0 0 50 50" version="1.1" xmlns="http://www.w3.org/2000/svg" xmlns:xlink="http://www.w3.org/1999/xlink">
    <defs>
        <path d="M15.896,42.362 L24.085,42.362 C25.216,42.362 26.427,42.291 27.722,42.15 C29.016,42.008 30.204,41.679 31.288,41.161 C32.369,40.644 33.264,39.903 33.97,38.937 C34.676,37.973 35.029,36.667 35.029,35.018 C35.029,32.383 34.17,30.548 32.452,29.512 C30.733,28.477 28.063,27.959 24.439,27.959 L15.896,27.959 L15.896,42.362 Z M15.896,20.333 L24.015,20.333 C26.98,20.333 29.205,19.758 30.688,18.604 C32.17,17.451 32.911,15.933 32.911,14.05 C32.911,11.886 32.146,10.273 30.616,9.214 C29.087,8.155 26.627,7.626 23.238,7.626 L15.896,7.626 L15.896,20.333 Z M7,0 L26.486,0 C28.369,0 30.229,0.224 32.063,0.671 C33.899,1.119 35.534,1.848 36.971,2.86 C38.406,3.873 39.571,5.179 40.466,6.779 C41.359,8.379 41.807,10.308 41.807,12.567 C41.807,15.392 41.006,17.721 39.406,19.557 C37.806,21.392 35.711,22.711 33.123,23.511 L33.123,23.652 C34.676,23.841 36.124,24.277 37.465,24.958 C38.807,25.641 39.947,26.511 40.89,27.57 C41.831,28.63 42.571,29.854 43.113,31.241 C43.654,32.631 43.925,34.125 43.925,35.725 C43.925,38.455 43.383,40.727 42.301,42.538 C41.218,44.351 39.794,45.81 38.03,46.915 C36.264,48.022 34.24,48.81 31.958,49.281 C29.674,49.751 27.356,49.987 25.004,49.987 L7,49.987 L7,0 Z" id="path-1"></path>
    </defs>
</svg>
